static/images/logos/keka.svg

<svg width="89" height="36" viewBox="0 0 89 36" fill="none" xmlns="http://www.w3.org/2000/svg">
<path d="M29.1773 22.2536C27.9268 22.9979 26.3307 23.5187 25.1576 23.835C25.1333 21.9563 25.7199 20.2217 26.7405 19.1689C27.4199 18.4682 28.2615 18.0983 29.1761 18.0983C30.5778 18.0983 31.1169 18.8493 31.1544 19.5534C31.2207 20.5257 30.5559 21.4343 29.1783 22.2536M36.9569 30.3878C37.3997 29.9271 37.4957 29.2343 37.2185 28.6587L36.854 27.9033C36.3072 26.7688 34.8934 26.3821 33.8307 27.0605C32.5308 27.8898 31.3809 28.2417 29.8775 28.4654C28.521 28.6666 26.6024 28.5727 25.8723 27.2259C27.4806 26.875 30.0113 26.1027 32.4512 24.6978C35.1586 23.1399 36.4662 21.2879 36.3392 19.1924C36.2432 17.7619 35.5573 16.4486 34.4073 15.4941C32.9837 14.3117 31.3046 13.7127 28.7166 13.7127C26.1286 13.7127 24.2674 14.7476 22.6801 16.4475C20.4621 18.8213 19.5619 22.0792 19.7308 24.4989C20.0899 30.0602 24.0288 33.0006 28.9431 33.0006C32.5881 33.0006 35.5671 31.8362 36.9569 30.39" fill="#7C46F1"/>
<path d="M63.5478 28.613C63.3558 28.613 63.1466 28.5067 62.9457 28.3054C62.4467 27.8059 61.9441 26.6559 61.9459 25.2097C61.9371 22.4067 62.5249 20.3916 63.6936 19.2203C64.4356 18.4771 65.3849 18.0993 66.5157 18.0993C67.2493 18.0993 67.8996 18.3475 68.3481 18.7967C68.8707 19.3209 69.1327 20.1044 69.128 21.1237V21.1259C69.1544 23.4684 66.7656 26.0658 66.0329 26.8057C64.8712 27.9791 63.8857 28.613 63.5478 28.613ZM74.5342 28.9828L74.5573 20.6096C74.5606 18.7722 73.9153 17.1516 72.6892 15.9256C71.2433 14.4782 69.116 13.7127 66.5379 13.7127C63.7441 13.7127 61.2058 14.714 59.3923 16.5325C57.3456 18.5833 56.2708 21.5841 56.2838 25.2086C56.275 26.5218 56.7531 29.1828 58.6282 31.0673C59.6918 32.1367 61.0271 32.6788 62.5981 32.6788C64.8225 32.6788 67.4932 30.5564 69.1623 28.1602L69.1414 29.9048C69.1711 31.8294 69.7894 32.68 71.7746 32.68H73.3321C74.007 32.68 74.5536 32.1311 74.5494 31.4562L74.5342 28.984V28.9828Z" fill="#7C46F1"/>
<path d="M84.2434 9.98032C84.285 9.75125 84.2142 9.52547 84.0499 9.3612L79.7398 5.05632C79.5755 4.89204 79.3487 4.82163 79.1191 4.86299C78.8895 4.90545 78.7039 5.05073 78.6076 5.26307L75.0844 13.0883C74.9627 13.3598 75.0173 13.6583 75.2279 13.8683C75.3616 14.0014 75.5352 14.0751 75.7171 14.0751C75.8166 14.0751 75.9148 14.0539 76.0087 14.0114L83.8421 10.4922C84.0554 10.3961 84.2012 10.2105 84.2434 9.98143" fill="#7C46F1"/>
<path d="M72.4465 11.7347C72.5802 11.9191 72.7844 12.0253 73.0065 12.0253C73.0685 12.0253 73.1315 12.0164 73.194 12.0007C73.4814 11.9236 73.679 11.6922 73.7077 11.4039L74.8181 3.7698C74.8413 3.53847 74.7529 3.3183 74.5761 3.16743C74.3983 3.01656 74.1674 2.96515 73.9419 3.02438L68.0549 4.60015C67.8295 4.66051 67.6564 4.82144 67.5777 5.04048C67.4995 5.25952 67.5337 5.4942 67.674 5.68865L72.4479 11.7347H72.4465Z" fill="#7C46F1"/>
<path d="M85.6784 14.5888C85.5271 14.4123 85.3072 14.3239 85.0688 14.3475L77.441 15.4549C77.1448 15.4852 76.9129 15.6818 76.8365 15.969C76.7592 16.2563 76.861 16.5412 77.0976 16.7122L83.16 21.4887C83.2808 21.5759 83.4206 21.6217 83.5664 21.6217C83.6474 21.6217 83.727 21.6083 83.8029 21.5803C84.0228 21.5021 84.1829 21.3289 84.2436 21.1031L85.821 15.2225C85.8816 14.9979 85.8284 14.7665 85.6784 14.5888Z" fill="#7C46F1"/>
<path d="M16.5368 32.5869H18.8432C19.5214 32.5869 19.9246 31.8292 19.5446 31.268L13.6616 22.5718L18.7582 15.8582C19.2497 15.21 18.7869 14.2801 17.9728 14.2812H17.7552C17.7552 14.2812 16.1149 14.3002 15.4908 14.3684C14.4271 14.4847 13.412 14.8758 12.7713 15.7319L8.3663 21.6229V8.29633C8.3663 7.43801 7.66929 6.74283 6.80994 6.74283H5.28562C4.1236 6.74283 3.17809 7.68721 3.17809 8.8462L3.00024 31.0322C3.00024 31.8896 3.69834 32.5869 4.5566 32.5869H6.27531C7.4296 32.5869 8.3663 31.6514 8.3663 30.4991V23.543L13.1701 30.7829C13.9179 31.9108 15.1816 32.5879 16.5358 32.5879" fill="#7C46F1"/>
<path d="M52.9515 32.5869H55.2579C55.936 32.5869 56.3391 31.8292 55.9591 31.268L50.0762 22.5718L55.1727 15.8582C55.6643 15.21 55.2014 14.2801 54.3873 14.2812H54.1697C54.1697 14.2812 52.5294 14.3002 51.9054 14.3684C50.8418 14.4847 49.8277 14.8758 49.1859 15.7319L44.7808 21.6229V8.29633C44.7808 7.43801 44.0839 6.74283 43.2247 6.74283H41.7003C40.5383 6.74283 39.5926 7.68721 39.5926 8.8462L39.4148 31.0322C39.4148 31.8896 40.1129 32.5869 40.9711 32.5869H42.6899C43.8442 32.5869 44.7808 31.6514 44.7808 30.4991V23.543L49.5847 30.7829C50.3327 31.9108 51.5962 32.5879 52.9506 32.5879" fill="#7C46F1"/>
</svg>

<svg xmlns="http://www.w3.org/2000/svg" width="89" height="36" fill="none" viewBox="0 0 89 36"><path fill="#7c46f1" d="M29.177 22.254c-1.25.744-2.846 1.265-4.02 1.581-.024-1.879.563-3.613 1.584-4.666.679-.7 1.52-1.07 2.435-1.07 1.402 0 1.94.75 1.978 1.454.067.973-.598 1.881-1.976 2.7m7.779 8.135c.443-.46.539-1.154.261-1.73l-.364-.755c-.547-1.134-1.96-1.52-3.023-.842-1.3.829-2.45 1.18-3.954 1.404-1.356.202-3.275.108-4.005-1.24 1.609-.35 4.14-1.122 6.58-2.527 2.707-1.558 4.014-3.41 3.887-5.506-.096-1.43-.782-2.743-1.932-3.698-1.423-1.182-3.102-1.781-5.69-1.781s-4.45 1.035-6.037 2.735c-2.218 2.373-3.118 5.631-2.95 8.05.36 5.562 4.299 8.503 9.213 8.503 3.645 0 6.624-1.165 8.014-2.611M63.548 28.613c-.192 0-.401-.106-.602-.308-.5-.5-1.002-1.65-1-3.095-.009-2.803.579-4.818 1.748-5.99.742-.743 1.69-1.12 2.822-1.12.733 0 1.384.247 1.832.697.523.524.785 1.307.78 2.327v.002c.026 2.342-2.362 4.94-3.095 5.68-1.162 1.173-2.147 1.807-2.485 1.807m10.986.37.023-8.373c.004-1.838-.642-3.458-1.868-4.684-1.446-1.448-3.573-2.213-6.151-2.213-2.794 0-5.332 1.001-7.146 2.82-2.046 2.05-3.121 5.051-3.108 8.676-.009 1.313.47 3.974 2.344 5.858 1.064 1.07 2.4 1.612 3.97 1.612 2.225 0 4.895-2.123 6.564-4.519l-.02 1.745c.03 1.924.647 2.775 2.633 2.775h1.557c.675 0 1.222-.549 1.217-1.224l-.015-2.472zM84.243 9.98a.69.69 0 0 0-.193-.619l-4.31-4.305a.7.7 0 0 0-.62-.193.69.69 0 0 0-.512.4l-3.524 7.825a.68.68 0 0 0 .144.78.69.69 0 0 0 .78.143l7.834-3.519a.69.69 0 0 0 .401-.51M72.447 11.735a.69.69 0 0 0 .747.266.68.68 0 0 0 .514-.597l1.11-7.634a.69.69 0 0 0-.242-.603.7.7 0 0 0-.634-.143L68.055 4.6a.69.69 0 0 0-.477.44.7.7 0 0 0 .096.649zM85.678 14.589a.7.7 0 0 0-.61-.242l-7.627 1.108a.68.68 0 0 0-.605.514.68.68 0 0 0 .262.743l6.062 4.777a.69.69 0 0 0 .643.091.69.69 0 0 0 .44-.477l1.578-5.88a.69.69 0 0 0-.143-.634M16.537 32.587h2.306a.846.846 0 0 0 .702-1.319l-5.883-8.696 5.096-6.714a.983.983 0 0 0-.785-1.577h-.218s-1.64.02-2.264.087c-1.064.117-2.079.508-2.72 1.364l-4.405 5.89V8.297c0-.858-.697-1.553-1.556-1.553H5.286a2.11 2.11 0 0 0-2.108 2.103L3 31.032c0 .858.698 1.555 1.557 1.555h1.718a2.09 2.09 0 0 0 2.091-2.088v-6.956l4.804 7.24a4.04 4.04 0 0 0 3.366 1.805M52.952 32.587h2.306a.846.846 0 0 0 .701-1.319l-5.883-8.696 5.097-6.714a.983.983 0 0 0-.786-1.577h-.217s-1.64.02-2.265.087c-1.063.117-2.077.508-2.72 1.364l-4.404 5.89V8.297c0-.858-.697-1.553-1.556-1.553H41.7a2.11 2.11 0 0 0-2.107 2.103l-.178 22.186c0 .858.698 1.555 1.556 1.555h1.719a2.09 2.09 0 0 0 2.09-2.088v-6.956l4.805 7.24a4.04 4.04 0 0 0 3.366 1.805"/></svg>
